svgs/bettercounter.svg

<svg xmlns="http://www.w3.org/2000/svg" viewBox="0 0 192 192"><path d="M99.221 139h43m-43-74.175L120.721 53m0 0v86M49.779 96h43m-21.5-21.5v43M96 16.5a79.529 79.529 0 0 0-56.215 23.285A79.529 79.529 0 0 0 16.5 96a79.529 79.529 0 0 0 23.285 56.215A79.529 79.529 0 0 0 96 175.5a79.529 79.529 0 0 0 56.215-23.285A79.529 79.529 0 0 0 175.5 96a79.529 79.529 0 0 0-23.285-56.215A79.529 79.529 0 0 0 96 16.5Z" fill="none" stroke="#000" stroke-width="12" stroke-linecap="round" stroke-linejoin="round"/></svg>

<svg
    xmlns="http://www.w3.org/2000/svg"
    viewBox="0 0 192 192"
    id="vector">
    <path
        id="path"
        d="M 99.221 139 L 142.221 139 M 99.221 64.825 L 120.721 53 M 120.721 53 L 120.721 139 M 49.779 96 L 92.779 96 M 71.279 74.5 L 71.279 117.5 M 96 16.5 C 74.923 16.5 54.688 24.882 39.785 39.785 C 24.882 54.688 16.5 74.923 16.5 96 C 16.5 117.077 24.882 137.312 39.785 152.215 C 54.688 167.118 74.923 175.5 96 175.5 C 117.077 175.5 137.312 167.118 152.215 152.215 C 167.118 137.312 175.5 117.077 175.5 96 C 175.5 74.923 167.118 54.688 152.215 39.785 C 137.312 24.882 117.077 16.5 96 16.5 Z"
        fill="none"
        stroke="#000000"
        stroke-width="12"
        stroke-linecap="round"
        stroke-linejoin="round"/>
</svg>
